X:1
T:Three Weeks Before Easter
M:3/4
L:1/4
K:G
D/2-G/2| G G A3/4- G/4| F D D| G B d| A2 B| G G A| F- D D| G B d| A2 B/2c/2|\
 d B G/2G/2| E c B| A F E/2F/2| D2 D/2D/2| D E c|
M:4/4
 B A G D/2D/2|
M:3/4
E/2-F/2 G|
